packages/bezier-icons/icons/sms-filled.svg

<svg width="24" height="24" viewBox="0 0 24 24" fill="none" xmlns="http://www.w3.org/2000/svg">
<path fill-rule="evenodd" clip-rule="evenodd" d="M21.5 12C21.5 16.4183 17.2467 20 12 20C11.3111 20 10.6393 19.9383 9.99208 19.821C8.57586 21.032 6.93904 21.612 5.8791 21.8801C5.45705 21.9869 5.16123 21.5173 5.38209 21.1421C5.76983 20.4835 6.24675 19.5469 6.52458 18.5384C4.08986 17.0899 2.5 14.7013 2.5 12C2.5 7.58172 6.75329 4 12 4C17.2467 4 21.5 7.58172 21.5 12ZM6 11.9994C6 12.8252 6.67592 13.5 7.50056 13.5C8.3263 13.5 9.00111 12.8252 9.00111 11.9994C9.00111 11.1748 8.3263 10.5 7.50056 10.5C6.67592 10.5 6 11.1748 6 11.9994ZM10.5 11.9994C10.5 12.8252 11.1759 13.5 12.0006 13.5C12.8263 13.5 13.5011 12.8252 13.5011 11.9994C13.5011 11.1748 12.8263 10.5 12.0006 10.5C11.1759 10.5 10.5 11.1748 10.5 11.9994ZM16.5006 13.5C15.6759 13.5 15 12.8252 15 11.9994C15 11.1748 15.6759 10.5 16.5006 10.5C17.3263 10.5 18.0011 11.1748 18.0011 11.9994C18.0011 12.8252 17.3263 13.5 16.5006 13.5Z" fill="#313234"/>
</svg>

<svg xmlns="http://www.w3.org/2000/svg" width="24" height="24" fill="none" viewBox="0 0 24 24"><path fill="#313234" fill-rule="evenodd" d="M21.5 12c0 4.418-4.253 8-9.5 8q-1.035-.002-2.008-.179c-1.416 1.211-3.053 1.791-4.113 2.06-.422.106-.718-.364-.497-.739.388-.659.865-1.595 1.143-2.604C4.09 17.09 2.5 14.701 2.5 12c0-4.418 4.253-8 9.5-8s9.5 3.582 9.5 8M6 12c0 .825.676 1.5 1.5 1.5.826 0 1.501-.675 1.501-1.5s-.675-1.5-1.5-1.5S6 11.175 6 12m4.5 0c0 .825.676 1.5 1.5 1.5.826 0 1.501-.675 1.501-1.5s-.675-1.5-1.5-1.5-1.501.675-1.501 1.5m6 1.5c-.824 0-1.5-.675-1.5-1.5s.676-1.5 1.5-1.5c.826 0 1.501.675 1.501 1.5s-.675 1.5-1.5 1.5" clip-rule="evenodd"/></svg>
